lib/oojs-ui/themes/apex/images/icons/find-ltr.svg

<?xml version="1.0" encoding="utf-8"?>
<svg xmlns="http://www.w3.org/2000/svg" width="24" height="24" viewBox="0 0 24 24">
    <g id="find">
        <path id="magnifying-glass" d="m 13.65625,11 c -1.921,0 -3.5,1.54775 -3.5,3.46875 0,1.92 1.579,3.5 3.5,3.5 0.749,0 1.432,-0.25225 2,-0.65625 l 0.09375,0.15625 2.375,2.375 c 0.19,0.189 0.53425,0.15325 0.78125,-0.09375 0.247,-0.247 0.314,-0.59125 0.125,-0.78125 l -2.375,-2.375 L 16.46875,16.5 C 16.87175,15.934 17.125,15.21775 17.125,14.46875 17.124,12.54875 15.57525,11 13.65625,11 z m 0,1.65625 c 1.011306,0 1.8125,0.801194 1.8125,1.8125 0,1.011306 -0.801194,1.84375 -1.8125,1.84375 -1.011306,0 -1.84375,-0.832444 -1.84375,-1.84375 0,-1.011306 0.832444,-1.8125 1.84375,-1.8125 z" />
        <path id="text" d="M 6,5 6,7 16,7 16,5 6,5 z m 0,3 0,2 11,0 0,-2 -11,0 z m 0,3 0,2 3.53125,0 c 0.2825289,-0.797203 0.786096,-1.486208 1.4375,-2 L 6,11 z m 0,3 0,2 3.53125,0 C 9.3537004,15.520243 9.25,15.010236 9.25,14.46875 9.25,14.309811 9.2962033,14.154621 9.3125,14 L 6,14 z" />
    </g>
</svg>

<?xml version="1.0" encoding="utf-8"?>
<svg xmlns="http://www.w3.org/2000/svg" width="24" height="24" viewBox="0 0 24 24">
    <g id="find">
        <path id="magnifying-glass" d="M13.656 11c-1.92 0-3.5 1.548-3.5 3.47 0 1.92 1.58 3.5 3.5 3.5.75 0 1.432-.253 2-.657l.094.156 2.375 2.374c.19.19.534.153.78-.094s.315-.59.126-.78l-2.374-2.376-.188-.094c.403-.566.656-1.282.656-2.03 0-1.92-1.55-3.47-3.47-3.47zm0 1.656c1.01 0 1.813.8 1.813 1.813 0 1.01-.802 1.843-1.814 1.843-1.01 0-1.844-.832-1.844-1.844s.832-1.814 1.844-1.814z"/>
        <path id="text" d="M6 5v2h10V5H6zm0 3v2h11V8H6zm0 3v2h3.53c.284-.797.787-1.486 1.44-2H6zm0 3v2h3.53c-.177-.48-.28-.99-.28-1.53 0-.16.046-.315.063-.47H6z"/>
    </g>
</svg>
